images_colibrex_svg/cmd/32/printpreview.svg

<svg viewBox="0 0 32 32" xmlns="http://www.w3.org/2000/svg"><path d="m6 3v26h19.998047v-.183594l-3.462891-3.46289c-.796849.377491-1.644525.635318-2.533203.636718h-.001953c-3.301864 0-6-2.698136-6-6 0-3.301863 2.698136-6 6-6 3.288678 0 5.976617 2.677096 5.998047 5.960938l.001953-9.951172-7-7zm19.998047 17.019531c-.006662.878604-.261241 1.717286-.634766 2.50586l.634766.634765z" fill="#fff"/><path d="m5.9980469 2c-.554 0-1 .446-1 1v26c0 .554.446 1 1 1h20.0000001c.342398 0 .591521-.185747.765625-.447266-.064939-.052772-.132905-.101179-.191406-.162109l-.574219-.574219v.183594h-20.0000001v-26h13.0000001v6c0 .6726441.491378 1 1 1h6v9.951172c.000086.013166.001953.025877.001953.039062v.001954c-.000015.009229-.001883.018122-.001953.027343v3.140625l1 1v-5.269531-10.5058594l-6.507813-6.3847656z" fill="#808080"/><path d="m20 9h6l-6-6z" fill="#fff" fill-rule="evenodd"/><path d="m28 27.9899-8-8" fill="none" stroke="#4d82b8" stroke-linecap="round" stroke-linejoin="round" stroke-width="2"/><circle cx="20" cy="19.989901" fill="#4d82b8" opacity=".99" r="5"/><circle cx="20" cy="19.989901" fill="#fff" opacity=".99" r="3"/></svg>

<?xml version="1.0" encoding="UTF-8" standalone="no"?>
<svg
   xmlns:dc="http://purl.org/dc/elements/1.1/"
   xmlns:cc="http://creativecommons.org/ns#"
   xmlns:rdf="http://www.w3.org/1999/02/22-rdf-syntax-ns#"
   xmlns:svg="http://www.w3.org/2000/svg"
   xmlns="http://www.w3.org/2000/svg"
   xmlns:xlink="http://www.w3.org/1999/xlink"
   xmlns:sodipodi="http://sodipodi.sourceforge.net/DTD/sodipodi-0.dtd"
   xmlns:inkscape="http://www.inkscape.org/namespaces/inkscape"
   viewBox="0 0 32 32"
   version="1.1"
   id="svg14"
   sodipodi:docname="printpreview.svg"
   inkscape:version="0.92.3 (unknown)">
  <metadata
     id="metadata20">
    <rdf:RDF>
      <cc:Work
         rdf:about="">
        <dc:format>image/svg+xml</dc:format>
        <dc:type
           rdf:resource="http://purl.org/dc/dcmitype/StillImage" />
        <dc:title></dc:title>
      </cc:Work>
    </rdf:RDF>
  </metadata>
  <defs
     id="defs18">
    <radialGradient
       inkscape:collect="always"
       xlink:href="#linearGradient870"
       id="radialGradient871"
       cx="22"
       cy="9.0769234"
       fx="22"
       fy="9.0769234"
       r="10"
       gradientTransform="matrix(1.3,1.4660479e-8,-1.6915937e-8,1.5,-6.6,-6.6153852)"
       gradientUnits="userSpaceOnUse" />
    <linearGradient
       inkscape:collect="always"
       id="linearGradient870">
      <stop
         style="stop-color:#d7d7d7;stop-opacity:1"
         offset="0"
         id="stop866" />
      <stop
         id="stop874"
         offset="0.29999998"
         style="stop-color:#f7f7f7;stop-opacity:1" />
      <stop
         style="stop-color:#ffffff;stop-opacity:1"
         offset="1"
         id="stop868" />
    </linearGradient>
    <linearGradient
       inkscape:collect="always"
       xlink:href="#linearGradient882"
       id="linearGradient879"
       x1="20"
       y1="9"
       x2="23"
       y2="6"
       gradientUnits="userSpaceOnUse" />
    <linearGradient
       inkscape:collect="always"
       id="linearGradient882">
      <stop
         style="stop-color:#ffffff;stop-opacity:1;"
         offset="0"
         id="stop878" />
      <stop
         id="stop886"
         offset="0.77967989"
         style="stop-color:#f1f1f1;stop-opacity:1" />
      <stop
         style="stop-color:#d5d5d5;stop-opacity:1"
         offset="1"
         id="stop880" />
    </linearGradient>
  </defs>
  <sodipodi:namedview
     pagecolor="#ffffff"
     bordercolor="#666666"
     borderopacity="1"
     objecttolerance="10"
     gridtolerance="10"
     guidetolerance="10"
     inkscape:pageopacity="0"
     inkscape:pageshadow="2"
     inkscape:window-width="1366"
     inkscape:window-height="706"
     id="namedview16"
     showgrid="false"
     inkscape:zoom="7.375"
     inkscape:cx="18.827158"
     inkscape:cy="14.12875"
     inkscape:window-x="0"
     inkscape:window-y="0"
     inkscape:window-maximized="1"
     inkscape:current-layer="svg14" />
  <path
     style="fill:url(#radialGradient871);fill-opacity:1"
     d="M 6 3 L 6 29 L 25.998047 29 L 25.998047 28.816406 L 22.535156 25.353516 C 21.738307 25.731007 20.890631 25.988834 20.001953 25.990234 L 20 25.990234 C 16.698136 25.990234 14 23.292098 14 19.990234 C 14 16.688371 16.698136 13.990234 20 13.990234 C 23.288678 13.990234 25.976617 16.66733 25.998047 19.951172 L 26 10 L 19 3 L 6 3 z M 25.998047 20.019531 C 25.991385 20.898135 25.736806 21.736817 25.363281 22.525391 L 25.998047 23.160156 L 25.998047 20.019531 z "
     id="path2-3" />
  <path
     d="m5.9980469 2c-.554 0-1 .446-1 1v26c0 .554.446 1 1 1h20.0000001c.342398 0 .591521-.185747.765625-.447266-.064939-.052772-.132905-.101179-.191406-.162109l-.574219-.574219v.183594h-20.0000001v-26h13.0000001v6c0 .6726441.491378 1 1 1h6v9.951172c.000086.013166.001953.025877.001953.039062v.001954c-.000015.009229-.001883.018122-.001953.027343v3.140625l1 1v-5.269531-10.5058594l-6.507813-6.3847656z"
     fill="#808080"
     id="path4"
     style="fill:#98989d;fill-opacity:1" />
  <path
     d="m28 27.9899-8-8"
     fill="none"
     stroke="#4d82b8"
     stroke-linecap="round"
     stroke-linejoin="round"
     stroke-width="2"
     id="path8"
     style="stroke:#0a84ff;stroke-opacity:1" />
  <circle
     cx="20"
     cy="19.989901"
     fill="#4d82b8"
     opacity=".99"
     r="5"
     id="circle10"
     style="fill:#0a84ff;fill-opacity:1;stroke:none" />
  <circle
     cx="20"
     cy="19.989901"
     fill="#fff"
     opacity=".99"
     r="3"
     id="circle12" />
  <path
     inkscape:connector-curvature="0"
     style="fill:url(#linearGradient879);fill-opacity:1;fill-rule:evenodd"
     id="path6"
     d="m 20,9 h 6 L 20,3 Z" />
</svg>
